components/Icon/icons/cross-circle-m.svg

<svg width="16" height="16" viewBox="0 0 16 16" fill="none" xmlns="http://www.w3.org/2000/svg">
  <path d="M24 12C24 18.6274 18.6274 24 12 24C5.37258 24 0 18.6274 0 12C0 5.37258 5.37258 0 12 0C18.6274 0 24 5.37258 24 12Z" fill="#EDEFEF"/>
  <path fill-rule="evenodd" clip-rule="evenodd" d="M16.1436 7.8127C16.5341 8.20322 16.5341 8.83639 16.1436 9.22691L8.57039 16.8001C8.17986 17.1906 7.5467 17.1906 7.15617 16.8001C6.76565 16.4096 6.76565 15.7764 7.15617 15.3859L14.7293 7.8127C15.1199 7.42217 15.753 7.42217 16.1436 7.8127Z" fill="black"/>
  <path fill-rule="evenodd" clip-rule="evenodd" d="M16.1436 16.8001C15.7531 17.1906 15.1199 17.1906 14.7294 16.8001L7.15625 9.22691C6.76573 8.83639 6.76573 8.20322 7.15625 7.8127C7.54678 7.42217 8.17994 7.42217 8.57047 7.8127L16.1436 15.3859C16.5342 15.7764 16.5342 16.4096 16.1436 16.8001Z" fill="black"/>
</svg>

<svg width="16" height="16" viewBox="0 0 16 16" fill="#edefef" xmlns="http://www.w3.org/2000/svg"><path d="M24 12c0 6.627-5.373 12-12 12S0 18.627 0 12 5.373 0 12 0s12 5.373 12 12z"/><path d="M16.144 7.813a1 1 0 010 1.414L8.57 16.8a1 1 0 01-1.414-1.414l7.573-7.573a1 1 0 011.415 0z" fill="#000"/><path d="M16.144 16.8a1 1 0 01-1.415 0L7.156 9.227A1 1 0 018.57 7.813l7.574 7.573a1 1 0 010 1.414z" fill="#000"/></svg>
